X: 13487
T: Flowers At Springtime
R: hornpipe
M: 4/4
K: Dmajor
|:cd|eCAG A2 de|fdBA B3A|d3e f2 ed|feed egfe|
D2 DF AF D2|GDGB AF D2|AddB AFDF|EDFE D2:|
|:cd|eCAE A2 de|
|:cd|eCAG A2 de|fdBA B3 ef|g3e f2 ed|Ceed CAGE|
D2 DF AF D2|GDGB AF D2|AddB AFDF|EDFE D2:|

